src/icons/placeholder.inline.svg

<svg width="112" height="40" viewBox="0 0 112 40" fill="none" xmlns="http://www.w3.org/2000/svg">
<g opacity="0.6">
<path d="M22.5827 13.6602H15.366L11.7422 20.0647L15.3494 26.4037H22.5816L26.1888 20.0647L22.5827 13.6602ZM21.62 24.6658H16.3088L13.6642 20.0477L16.311 15.3811H21.6222L24.269 20.0477L21.62 24.6658Z" fill="#A7B1BE"/>
<path opacity="0.2" d="M13.6562 20.0651L16.303 24.6673H21.6143L24.2777 20.0651L21.6143 15.334H16.303L13.6562 20.0651Z" fill="#A7B1BE"/>
<path d="M22.5827 27.2734H15.366L11.7422 33.661L15.3494 40H22.5816L26.1888 33.661L22.5827 27.2734ZM21.62 38.3277H16.3088L13.6642 33.7096L16.311 29.0429H21.6222L24.269 33.7096L21.62 38.3277Z" fill="#A7B1BE"/>
<path opacity="0.2" d="M13.6562 33.6608L16.303 38.3275H21.6143L24.2777 33.6608L21.6143 28.9941H16.303L13.6562 33.6608Z" fill="#A7B1BE"/>
<path d="M22.5827 0H15.366L11.7422 6.40454L15.366 12.7435H22.5982L26.2054 6.40454L22.5827 0ZM21.62 11.0057H16.3088L13.6642 6.38759L16.311 1.67345H21.6222L24.269 6.34013L21.62 11.0057Z" fill="#A7B1BE"/>
<path opacity="0.2" d="M13.6562 6.40394L16.303 11.0062H21.6143L24.2777 6.40394L21.6143 1.67285H16.303L13.6562 6.40394Z" fill="#A7B1BE"/>
<path d="M34.323 20.5156H27.1639L23.5566 26.9202L27.1639 33.2592H34.396L38.0033 26.9202L34.323 20.5156ZM33.3603 31.5484H28.0491L25.4023 26.9303L28.0491 22.2637H33.3603L36.0071 26.9303L33.3603 31.5484Z" fill="#A7B1BE"/>
<path opacity="0.2" d="M25.3828 26.942L28.0676 31.5601H33.3642L36.0752 26.942L33.3642 22.2109H28.0676L25.3828 26.942Z" fill="#A7B1BE"/>
<path d="M34.323 6.85352H27.1639L23.5566 13.1925L27.1639 19.5315H34.396L38.0033 13.1925L34.323 6.85352ZM33.3603 17.875H28.0491L25.4023 13.2569L28.0491 8.59024H33.3603L36.0071 13.2569L33.3603 17.875Z" fill="#A7B1BE"/>
<path opacity="0.2" d="M25.3828 13.2616L28.0251 17.942H33.3643L36.0753 13.3239L33.3643 8.59277L28.0251 8.59277L25.3828 13.2616Z" fill="#A7B1BE"/>
<path d="M10.7774 20.5156H3.60723L0 26.9202L3.60723 33.2592H10.8394L14.4466 26.9202L10.7774 20.5156ZM9.81477 31.5383H4.56769L1.92091 26.9202L4.56769 22.2535H9.87895L12.5257 26.9202L9.81477 31.5383Z" fill="#A7B1BE"/>
<path opacity="0.2" d="M1.92188 26.9186L4.56865 31.5367H9.81574L12.5267 26.9186L9.81574 22.1875H4.56865L1.92188 26.9186Z" fill="#A7B1BE"/>
<path d="M10.7774 6.85352H3.60723L0 13.1925L3.60723 19.5315H10.8394L14.4466 13.1925L10.7774 6.85352ZM9.81477 17.8761H4.56769L1.92091 13.2581L4.56769 8.59137H9.87895L12.5257 13.2581L9.81477 17.8761Z" fill="#A7B1BE"/>
<path opacity="0.2" d="M1.92188 13.2584L4.56865 17.8765H9.81574L12.5267 13.2584L9.81574 8.52734H4.56865L1.92188 13.2584Z" fill="#A7B1BE"/>
<path d="M54.1857 13.4024C54.7744 13.4065 55.361 13.4746 55.9356 13.6054C56.4804 13.7241 56.9408 13.9382 57.3883 14.1645V15.9151C56.8905 15.7299 56.3836 15.5715 55.8697 15.4403C55.3585 15.3216 54.8969 15.2373 54.3846 15.2373C53.8723 15.2373 53.3794 15.3216 52.866 15.4747C52.3526 15.6278 51.9257 15.9151 51.4966 16.3212C51.101 16.7272 50.7864 17.2364 50.5238 17.8799C50.2925 18.5233 50.1779 19.3198 50.1779 20.285C50.1779 20.9506 50.2601 21.6163 50.459 22.2153C50.6367 22.7727 50.9167 23.2901 51.2836 23.7396C51.6468 24.1801 52.1083 24.5018 52.6045 24.7381C53.1492 24.9755 53.7761 25.0931 54.4851 25.0931C54.9964 25.0931 55.4903 25.0598 56.0524 24.9411C56.5673 24.814 57.0744 24.6554 57.571 24.4663V26.228C57.4229 26.3123 57.2251 26.431 56.9938 26.5164C56.7625 26.6019 56.4826 26.6684 56.1691 26.7538C55.8881 26.8382 55.5919 26.8725 55.2288 26.9058L54.256 26.9901C53.4302 27.0015 52.6089 26.8641 51.8295 26.5841C51.0995 26.308 50.4231 25.9008 49.8321 25.3815C49.2514 24.7923 48.8009 24.0817 48.5112 23.2981C48.187 22.4516 48 21.5009 48 20.3338C48 19.4874 48.0821 18.7252 48.281 18.0485C48.4291 17.3829 48.6766 16.7616 48.9911 16.2513C49.3057 15.741 49.6397 15.2861 50.0471 14.92C50.4377 14.5716 50.8699 14.2756 51.3334 14.0392C51.7949 13.8018 52.2737 13.6331 52.7363 13.5144L54.189 13.3791L54.1857 13.4024ZM60.7379 10.7598V8.38797H62.7915V10.7598H60.7379ZM60.7703 26.6662V13.7585H62.824V26.6762L60.7703 26.6662ZM67.0587 26.6773V6.99902H69.1124V26.6762L67.0587 26.6773ZM73.3029 10.7598V8.38797H75.3565V10.7598H73.3029ZM73.3353 26.6662V13.7585H75.3889V26.6762L73.3353 26.6662ZM84.52 26.999C83.9311 26.9999 83.3439 26.9318 82.7701 26.796C82.2918 26.6565 81.8319 26.4575 81.4006 26.2036C81.005 25.9151 80.6581 25.6445 80.3954 25.2384C80.1085 24.8823 79.8886 24.4745 79.7469 24.0358C79.6313 23.703 79.5491 23.3702 79.4659 22.952L79.3838 21.6651V13.7718H81.4374V21.6651C81.4374 22.394 81.5195 22.9964 81.7184 23.4623C81.9162 24.0214 82.2631 24.4275 82.7236 24.7492C83.184 25.0709 83.8131 25.224 84.5221 25.224C85.2982 25.224 85.9251 25.072 86.4028 24.6993C86.8654 24.3443 87.2275 23.9027 87.408 23.2937C87.5561 22.8532 87.6393 22.2952 87.6393 21.6518V13.753H89.693V21.6806C89.6932 22.083 89.6658 22.4848 89.6108 22.8832C89.5786 23.2365 89.5009 23.5838 89.3795 23.916C89.2314 24.3565 88.9839 24.7625 88.731 25.153C88.45 25.508 88.1041 25.8186 87.7258 26.1182C87.3302 26.4066 86.8676 26.593 86.3228 26.7616C85.7361 26.9215 85.1314 27.0014 84.5243 26.999H84.52ZM103.797 26.6662H101.743V18.3558C101.745 17.8686 101.678 17.3836 101.546 16.9158C101.43 16.5098 101.265 16.1869 101.034 15.9506C100.802 15.7057 100.52 15.515 100.21 15.3915C99.8854 15.2728 99.5612 15.2395 99.1537 15.2395C98.4111 15.2395 97.7507 15.4425 97.1563 15.8319C96.5791 16.238 96.017 16.7971 95.5566 17.5093V26.6906H93.5105V13.7585H95.1102L95.5058 15.5557H95.5382L96.2808 14.7092C96.5618 14.4718 96.858 14.2344 97.1725 14.0436C97.5094 13.836 97.8776 13.6872 98.262 13.6032C98.6576 13.4845 99.0867 13.4512 99.559 13.4512C100.499 13.4512 101.275 13.6886 101.902 14.1168C102.529 14.5917 102.992 15.2007 103.355 15.9972H103.387C103.932 15.2007 104.593 14.5573 105.301 14.1168C106.008 13.6764 106.868 13.4512 107.793 13.4512C108.222 13.4512 108.685 13.5355 109.196 13.6542C109.707 13.7729 110.136 14.0092 110.565 14.3199C110.994 14.6305 111.308 15.1164 111.571 15.7254C111.852 16.3179 112 17.0811 112 18.0463V26.7028H110.02V18.3857C110.021 17.8985 109.955 17.4135 109.822 16.9458C109.706 16.5397 109.541 16.2169 109.311 15.9806C109.078 15.7357 108.797 15.545 108.486 15.4215C108.162 15.3028 107.837 15.2695 107.43 15.2695C106.687 15.2695 106.027 15.4725 105.432 15.8619C104.855 16.2679 104.293 16.8271 103.798 17.5393L103.797 26.6662Z" fill="#A7B1BE"/>
</g>
</svg>

<svg xmlns="http://www.w3.org/2000/svg" width="112" height="40" fill="none" viewBox="0 0 112 40" class="h-8 sm:h-12 flex-shrink-0" aria-label="homeRetailer logo"><g fill="black" opacity="0.6"><path d="M22.583 13.66h-7.217l-3.624 6.405 3.607 6.339h7.233l3.607-6.34zm-.963 11.006h-5.311l-2.645-4.618 2.647-4.667h5.311l2.647 4.667z"></path><path d="m13.656 20.065 2.647 4.602h5.311l2.664-4.602-2.664-4.731h-5.311z" opacity="0.2"></path><path d="M22.583 27.273h-7.217l-3.624 6.388L15.35 40h7.233l3.607-6.339zm-.963 11.055h-5.311l-2.645-4.618 2.647-4.667h5.311l2.647 4.667z"></path><path d="m13.656 33.66 2.647 4.668h5.311l2.664-4.667-2.664-4.667h-5.311z" opacity="0.2"></path><path d="M22.583 0h-7.217l-3.624 6.405 3.624 6.338h7.232l3.607-6.338zm-.963 11.006h-5.311l-2.645-4.618 2.647-4.715h5.311L24.27 6.34z"></path><path d="m13.656 6.404 2.647 4.602h5.311l2.664-4.602-2.664-4.731h-5.311z" opacity="0.2"></path><path d="M34.323 20.516h-7.16l-3.606 6.404 3.607 6.34h7.232l3.607-6.34zm-.963 11.032h-5.31l-2.648-4.618 2.647-4.666h5.311l2.647 4.666z"></path><path d="m25.383 26.942 2.685 4.618h5.296l2.711-4.618-2.71-4.731h-5.297z" opacity="0.2"></path><path d="M34.323 6.854h-7.16l-3.606 6.339 3.607 6.339h7.232l3.607-6.34zm-.963 11.021h-5.31l-2.648-4.618L28.05 8.59h5.311l2.647 4.667z"></path><path d="m25.383 13.262 2.642 4.68h5.34l2.71-4.618-2.71-4.731h-5.34z" opacity="0.2"></path><path d="M10.777 20.516h-7.17L0 26.92l3.607 6.34h7.232l3.608-6.34zm-.962 11.022H4.568L1.92 26.92l2.647-4.667h5.311l2.647 4.667z"></path><path d="m1.922 26.919 2.647 4.618h5.247l2.71-4.618-2.71-4.732H4.569z" opacity="0.2"></path><path d="M10.777 6.854h-7.17L0 13.193l3.607 6.339h7.232l3.608-6.34zm-.962 11.022H4.568L1.92 13.258l2.647-4.667h5.311l2.647 4.667z"></path><path d="m1.922 13.258 2.647 4.619h5.247l2.71-4.619-2.71-4.73H4.569z" opacity="0.2"></path><path d="M54.186 13.402a8 8 0 0 1 1.75.203c.544.12 1.005.333 1.452.56v1.75a15 15 0 0 0-1.518-.475c-.511-.118-.973-.203-1.485-.203a5.2 5.2 0 0 0-1.519.238c-.513.153-.94.44-1.37.846-.395.406-.71.915-.972 1.559-.232.643-.346 1.44-.346 2.405 0 .666.082 1.331.281 1.93.178.558.458 1.075.825 1.525.363.44.824.762 1.32.998q.818.356 1.881.355c.511 0 1.005-.033 1.567-.152a13 13 0 0 0 1.519-.475v1.762c-.148.084-.346.203-.577.288-.231.086-.511.152-.825.238-.28.084-.577.118-.94.152l-.973.084a6.9 6.9 0 0 1-2.426-.406 6.5 6.5 0 0 1-1.998-1.203 5.9 5.9 0 0 1-1.32-2.083c-.325-.846-.512-1.797-.512-2.964 0-.847.082-1.609.281-2.285a5.9 5.9 0 0 1 .71-1.798c.315-.51.649-.965 1.056-1.331.39-.348.823-.644 1.286-.88.462-.238.94-.407 1.403-.526l1.453-.135zm6.552-2.642V8.388h2.053v2.372zm.032 15.906V13.76h2.054v12.917zm6.289.011V7h2.053v19.677zm6.244-15.917V8.388h2.053v2.372zm.032 15.906V13.76h2.054v12.917zM84.52 27a7.6 7.6 0 0 1-1.75-.203 6 6 0 0 1-1.37-.592c-.395-.289-.742-.56-1.005-.966a3.8 3.8 0 0 1-.648-1.202 8 8 0 0 1-.281-1.084l-.082-1.287v-7.893h2.053v7.893c0 .729.082 1.331.281 1.797.198.56.545.965 1.006 1.287s1.09.475 1.798.475c.776 0 1.403-.152 1.88-.525.463-.355.826-.796 1.006-1.405.148-.44.231-.999.231-1.642v-7.899h2.054v7.928q0 .604-.082 1.202-.049.532-.232 1.033c-.148.44-.395.846-.648 1.237-.281.355-.627.666-1.005.965-.396.289-.858.475-1.403.644-.587.16-1.192.24-1.799.237zm19.277-.333h-2.054v-8.31a5.2 5.2 0 0 0-.197-1.44c-.116-.406-.281-.73-.512-.965a2.3 2.3 0 0 0-.824-.56c-.325-.118-.649-.152-1.056-.152a3.56 3.56 0 0 0-1.998.593 6.1 6.1 0 0 0-1.6 1.677v9.182H93.51V13.759h1.6l.396 1.797h.032l.743-.847c.28-.237.577-.475.891-.665a3.5 3.5 0 0 1 1.09-.44c.396-.12.825-.153 1.297-.153.94 0 1.716.238 2.343.666.627.475 1.09 1.084 1.453 1.88h.032c.545-.796 1.206-1.44 1.914-1.88.707-.44 1.567-.666 2.492-.666.429 0 .892.085 1.403.203s.94.355 1.369.666c.429.31.743.796 1.006 1.405.281.593.429 1.356.429 2.321v8.657h-1.98v-8.317a5.2 5.2 0 0 0-.198-1.44c-.116-.406-.281-.73-.511-.965a2.3 2.3 0 0 0-.825-.56c-.324-.118-.649-.151-1.056-.151-.743 0-1.403.203-1.998.592a6.7 6.7 0 0 0-1.634 1.677z"></path></g></svg>
